X: 9704
T: Deck The Halls
R: hornpipe
M: 4/4
K: Fmajor
|:c3 B A2 G2|F2 F2 A2 F2|GABG A3 G|F2 E2 F4:|
G3 A B2 G2|A3 B c2 G2|A/B/ c3 B/c/ d3|e2 d2 c4|
c3 B A2 G2|F2 F2 A2 F2|GdBG A3 G|F2 C2 F4||

